X:2
T:Farewell to Bachelorhood Harmony
C:Jansen Wendell 
R:reel
M:C
K:G
A,C|:E2EG AGED|C2E2EGAA|c2e2d2A2|B3dB2Bd|
edef edBA|D2G2B2dB|B2Be BGGD|1E3GE2A,C:|2E3GE2z||
%%vskip .25in
|:c2e2e2ce|egge c2B2|c2e2d2A2|B3dB2Bd|
edef edBA|D2G2B2dB|B2Be BGGD|1E3GE2z2:|2E3GE2|]
